X:67
T:Dance
S:John Moore's Book 2
Z:Transcribed by Edmund Spriggs 04/2021
%%VWML: Moore1-4494-p49-0
F:http://www.vwml.org/record/Moore2/4494/p49
N:Fourth bar lacks a semiquaver. Last note, F, should be a crotchet.
M:2/4
L:1/8
K:G
G2 d>B|G2d>B|c>dc>B|A>GF>|
G2 d>B|G2d>Bc>A G>F|G4:|
|:d2g>f|(e>d)(c>B)|A>Bc>d|B2G2|
d2g>f|e>dc>B|A>c A>c|G4:|

